!!!OTL: Die Juedin.
!!!OTL-incipit: ES WAAS EINE SCHOENE JUEDIN
!!!ARE: Europa, Mitteleuropa, Deutschland, Oberrhein
!!!SCT: Z1016
!!!TXL: @@DE
!!!YEM: Copyright 1995, estate of Helmut Schaffrath.
**kern	**text
*ICvox	*
*M2/4	*
*k[f#c#g#d#]	*
*E:	*
!LO:TX:a:t=Vom Oberrhein.	!
{8e	Es
=1	=1
8e	war
16g#	ei-
16a	-ne
8b/	ſchö-
16f#L	-ne
16aJ	.
=2	=2
8g#L	Jü-
8f#J	.
8e	-din,
8r}	.
=3	=3
{16r	.
16ee	ein
16dd#	wun-
16cc#	-der-
8dd#	-ſchö-
8cc#	-nes
=4	=4
4b	Weib,
8r}	.
{8b	ſie
=5	=5
8b	hat
16b	'ne
16b	.
8ee	ſchöne
8cc#	.
=6	=6
4b/	Toch-
8g#}	-ter,
{16g#L	das
16aJ	.
=7	=7
8b	Haar
8b	war
8ee	ihr
8cc#	ge-
=8	=8
4b/	-floch-
8g#}	-ten,
{16cc#L	ʒum
16bJ	.
=9	=9
8a	Tanʒ
8g#	war
8a	ſie
8b/	be-
=10	=10
4g#	-reit.
8r}	.
{8b	ſie
=11	=11
8b	hat
16b	'ne
16b	.
8ee	ſchöne
8cc#	.
=12	=12
4b/	Toch-
8g#}	-ter,
{16g#L	das
16aJ	.
=13	=13
8b	Haar
8b	war
8ee	ihr
8cc#	ge-
=14	=14
4b/	-floch-
8g#}	-ten,
{16cc#L	ʒum
16bJ	.
=15	=15
8a	Tanʒ
8g#	war
8a	ſie
8b/	be-
=16	=16
4g#	-reit.
8r}	.
==	==
!!!AGN: Romanze, Ballade, Tod
!!!ONB: ESAC (Essen Associative Code) Database: ZUCCAL
!!!AMT: simple duple
!!!AIN: vox
!!!EED: Helmut Schaffrath
!!!EEV: 1.0
!!!GTL: I. Volks- Leuschen.
!!!URL-scan: https://www.digitale-sammlungen.de/de/view/bsb11160573?page=47
!!!ENC: Anna Maria Matuszewska
!!!EEV: 2025/01/31
*-	*-
